austria/municipalities/50335.svg

<?xml version="1.0" encoding="UTF-8"?>
<!DOCTYPE svg PUBLIC "-//W3C//DTD SVG 1.1//EN" "http://www.w3.org/Graphics/SVG/1.1/DTD/svg11.dtd">
<svg xmlns="http://www.w3.org/2000/svg" version="1.1" width="159px" height="192px" style="shape-rendering:geometricPrecision; text-rendering:geometricPrecision; image-rendering:optimizeQuality; fill-rule:evenodd; clip-rule:evenodd" xmlns:xlink="http://www.w3.org/1999/xlink">
<g><path style="opacity:1" fill="#030303" d="M -0.5,-0.5 C 52.5,-0.5 105.5,-0.5 158.5,-0.5C 158.5,37.8333 158.5,76.1667 158.5,114.5C 155.327,145.669 139.994,168.836 112.5,184C 102.357,187.893 92.0241,190.393 81.5,191.5C 79.8333,191.5 78.1667,191.5 76.5,191.5C 30.293,185.292 4.62636,158.959 -0.5,112.5C -0.5,74.8333 -0.5,37.1667 -0.5,-0.5 Z"/></g>
<g><path style="opacity:1" fill="#fcfcfc" d="M 25.5,3.5 C 68.6635,2.5013 111.997,2.16797 155.5,2.5C 155.5,32.1667 155.5,61.8333 155.5,91.5C 153.217,91.3921 151.217,90.5588 149.5,89C 108.312,60.2433 66.9784,31.7433 25.5,3.5 Z"/></g>
<g><path style="opacity:1" fill="#f2f2f2" d="M 35.5,17.5 C 40.58,17.6202 42.9133,20.2869 42.5,25.5C 34.7261,26.7569 32.3927,24.0902 35.5,17.5 Z"/></g>
<g><path style="opacity:1" fill="#ededed" d="M 15.5,18.5 C 24.048,18.7902 30.7146,22.4569 35.5,29.5C 36.7202,28.2889 37.8869,28.2889 39,29.5C 42.1435,32.6246 41.9769,35.2913 38.5,37.5C 34.675,32.8424 30.3417,28.6757 25.5,25C 21.1712,23.8485 17.3379,24.6819 14,27.5C 12.9361,32.8776 14.7694,37.0443 19.5,40C 24.037,42.0127 28.7037,43.5127 33.5,44.5C 33.67,45.8221 33.3366,46.9887 32.5,48C 29.8078,48.4298 27.1411,48.2631 24.5,47.5C 24.5,46.1667 24.5,44.8333 24.5,43.5C 13.1474,42.6544 7.64737,36.6544 8,25.5C 10.3697,22.9614 12.8697,20.6281 15.5,18.5 Z"/></g>
<g><path style="opacity:1" fill="#ececec" d="M 46.5,50.5 C 55.8942,50.2122 62.8942,54.2122 67.5,62.5C 68.7202,61.2889 69.8869,61.2889 71,62.5C 72.1667,64.8333 73.3333,67.1667 74.5,69.5C 74.1131,70.7199 73.2798,71.3865 72,71.5C 69.4834,69.3158 67.3167,66.8158 65.5,64C 62.8333,62 60.1667,60 57.5,58C 48.694,56.1393 45.194,59.6393 47,68.5C 51.9577,73.9513 58.1243,76.9513 65.5,77.5C 65.5,78.8333 65.5,80.1667 65.5,81.5C 62.4781,81.196 59.4781,80.696 56.5,80C 50.7068,77.0559 45.2068,73.5559 40,69.5C 39.0691,67.5405 38.2357,65.5405 37.5,63.5C 38.4318,61.2046 39.2652,58.8713 40,56.5C 42.0627,54.2659 44.2294,52.2659 46.5,50.5 Z"/></g>
<g><path style="opacity:1" fill="#f5f5f5" d="M 82.5,50.5 C 89.2317,50.0686 92.3984,53.0686 92,59.5C 89.6272,61.8501 87.1272,62.0167 84.5,60C 82.2589,58.2609 80.5922,56.0942 79.5,53.5C 80.3398,52.265 81.3398,51.265 82.5,50.5 Z"/></g>
<g><path style="opacity:1" fill="#fdfdfd" d="M 2.5,61.5 C 48.6448,92.743 94.6448,124.243 140.5,156C 120.092,182.143 93.425,192.143 60.5,186C 31.8602,176.692 13.3602,157.526 5,128.5C 4.33333,125.167 3.66667,121.833 3,118.5C 2.50005,99.5029 2.33338,80.5029 2.5,61.5 Z"/></g>
<g><path style="opacity:1" fill="#f1f1f1" d="M 27.5,62.5 C 33.1618,63.7873 35.4952,67.1206 34.5,72.5C 27.5168,74.9438 24.0168,72.6105 24,65.5C 25.1451,64.3636 26.3117,63.3636 27.5,62.5 Z"/></g>
<g><path style="opacity:1" fill="#ededed" d="M 87.5,66.5 C 96.8035,66.1513 103.803,69.9847 108.5,78C 109.549,78.4922 110.549,78.3256 111.5,77.5C 113.043,80.086 114.709,82.586 116.5,85C 114.956,86.1871 113.289,86.5205 111.5,86C 107.129,77.2778 100.129,73.2778 90.5,74C 87.2306,77.4531 86.7306,81.2865 89,85.5C 94.1347,89.8176 99.968,92.6509 106.5,94C 107.647,95.9036 107.147,97.4036 105,98.5C 99.9148,94.8938 93.7481,92.0605 86.5,90C 77.0355,81.7511 77.3688,73.9178 87.5,66.5 Z"/></g>
<g><path style="opacity:1" fill="#eeeeee" d="M 127.5,79.5 C 131.008,80.5041 134.174,82.1707 137,84.5C 137.743,86.4406 137.576,88.2739 136.5,90C 129.325,91.4801 125.825,88.6468 126,81.5C 126.717,80.9558 127.217,80.2891 127.5,79.5 Z"/></g>
<g><path style="opacity:1" fill="#f1f1f1" d="M 72.5,94.5 C 77.0756,94.5675 80.5756,96.5675 83,100.5C 83.2508,103.929 81.5841,105.929 78,106.5C 73.3824,105.715 70.5491,103.049 69.5,98.5C 69.7867,96.5567 70.7867,95.2233 72.5,94.5 Z"/></g>
<g><path style="opacity:1" fill="#ececec" d="M 124.5,101.5 C 132.888,102.217 139.222,106.217 143.5,113.5C 147.115,113.591 149.448,115.758 150.5,120C 150.333,121.5 149.5,122.333 148,122.5C 145.103,117.903 141.603,113.736 137.5,110C 132.794,106.516 128.294,106.683 124,110.5C 123.148,116.96 125.648,121.794 131.5,125C 134.833,126 138.167,127 141.5,128C 141.854,129.626 141.854,131.459 141.5,133.5C 138.834,133.067 136.168,132.567 133.5,132C 132.62,130.644 132.286,129.144 132.5,127.5C 124.789,125.954 119.289,121.621 116,114.5C 115.783,108.21 118.616,103.877 124.5,101.5 Z"/></g>
<g><path style="opacity:1" fill="#fafafa" d="M -0.5,112.5 C 4.62636,158.959 30.293,185.292 76.5,191.5C 50.8333,191.5 25.1667,191.5 -0.5,191.5C -0.5,165.167 -0.5,138.833 -0.5,112.5 Z"/></g>
<g><path style="opacity:1" fill="#fafafa" d="M 158.5,114.5 C 158.5,140.167 158.5,165.833 158.5,191.5C 132.833,191.5 107.167,191.5 81.5,191.5C 92.0241,190.393 102.357,187.893 112.5,184C 139.994,168.836 155.327,145.669 158.5,114.5 Z"/></g>
<g><path style="opacity:1" fill="#ececec" d="M 122.5,128.5 C 130.076,128.866 132.409,132.366 129.5,139C 124.332,139.586 120.998,137.419 119.5,132.5C 119.787,130.557 120.787,129.223 122.5,128.5 Z"/></g>
</svg>

<svg xmlns="http://www.w3.org/2000/svg" width="159" height="192" style="shape-rendering:geometricPrecision;text-rendering:geometricPrecision;image-rendering:optimizeQuality;fill-rule:evenodd;clip-rule:evenodd"><path style="opacity:1" fill="#030303" d="M-.5-.5h159v115c-3.173 31.169-18.506 54.336-46 69.5-10.143 3.893-20.476 6.393-31 7.5h-5c-46.207-6.208-71.874-32.541-77-79V-.5z"/><path style="opacity:1" fill="#fcfcfc" d="M25.5 3.5a4225.584 4225.584 0 0 1 130-1v89c-2.283-.108-4.283-.941-6-2.5a12871.477 12871.477 0 0 0-124-85.5z"/><path style="opacity:1" fill="#f2f2f2" d="M35.5 17.5c5.08.12 7.413 2.787 7 8-7.774 1.257-10.107-1.41-7-8z"/><path style="opacity:1" fill="#ededed" d="M15.5 18.5c8.548.29 15.215 3.957 20 11 1.22-1.211 2.387-1.211 3.5 0 3.144 3.125 2.977 5.791-.5 8a77.021 77.021 0 0 0-13-12.5c-4.329-1.151-8.162-.318-11.5 2.5-1.064 5.378.77 9.544 5.5 12.5a68.486 68.486 0 0 0 14 4.5c.17 1.322-.163 2.489-1 3.5-2.692.43-5.359.263-8-.5v-4c-11.353-.846-16.853-6.846-16.5-18a73.496 73.496 0 0 1 7.5-7z"/><path style="opacity:1" fill="#ececec" d="M46.5 50.5c9.394-.288 16.394 3.712 21 12 1.22-1.211 2.387-1.211 3.5 0l3.5 7c-.387 1.22-1.22 1.886-2.5 2a35.01 35.01 0 0 1-6.5-7.5l-8-6c-8.806-1.86-12.306 1.64-10.5 10.5 4.958 5.451 11.124 8.451 18.5 9v4a70.529 70.529 0 0 1-9-1.5A102.005 102.005 0 0 1 40 69.5a66.678 66.678 0 0 1-2.5-6 87.301 87.301 0 0 0 2.5-7 53.855 53.855 0 0 1 6.5-6z"/><path style="opacity:1" fill="#f5f5f5" d="M82.5 50.5c6.732-.431 9.898 2.569 9.5 9-2.373 2.35-4.873 2.517-7.5.5-2.241-1.74-3.908-3.906-5-6.5.84-1.235 1.84-2.235 3-3z"/><path style="opacity:1" fill="#fdfdfd" d="M2.5 61.5a15866.072 15866.072 0 0 1 138 94.5c-20.408 26.143-47.075 36.143-80 30-28.64-9.308-47.14-28.474-55.5-57.5l-2-10c-.5-18.997-.667-37.997-.5-57z"/><path style="opacity:1" fill="#f1f1f1" d="M27.5 62.5c5.662 1.287 7.995 4.62 7 10-6.983 2.444-10.483.11-10.5-7a30.139 30.139 0 0 1 3.5-3z"/><path style="opacity:1" fill="#ededed" d="M87.5 66.5c9.303-.349 16.303 3.485 21 11.5 1.049.492 2.049.326 3-.5a89.809 89.809 0 0 0 5 7.5c-1.544 1.187-3.211 1.52-5 1-4.371-8.722-11.371-12.722-21-12-3.27 3.453-3.77 7.287-1.5 11.5 5.135 4.318 10.968 7.15 17.5 8.5 1.147 1.904.647 3.404-1.5 4.5-5.085-3.606-11.252-6.44-18.5-8.5-9.465-8.249-9.131-16.082 1-23.5z"/><path style="opacity:1" fill="#eee" d="M127.5 79.5a26.057 26.057 0 0 1 9.5 5c.743 1.94.576 3.774-.5 5.5-7.175 1.48-10.675-1.353-10.5-8.5.717-.544 1.217-1.21 1.5-2z"/><path style="opacity:1" fill="#f1f1f1" d="M72.5 94.5c4.576.067 8.076 2.067 10.5 6 .25 3.429-1.416 5.429-5 6-4.618-.785-7.45-3.451-8.5-8 .287-1.943 1.287-3.277 3-4z"/><path style="opacity:1" fill="#ececec" d="M124.5 101.5c8.388.717 14.722 4.717 19 12 3.615.091 5.948 2.258 7 6.5-.167 1.5-1 2.333-2.5 2.5-2.897-4.597-6.397-8.764-10.5-12.5-4.706-3.484-9.206-3.317-13.5.5-.852 6.46 1.648 11.294 7.5 14.5l10 3c.354 1.626.354 3.459 0 5.5a168.167 168.167 0 0 1-8-1.5c-.88-1.356-1.214-2.856-1-4.5-7.711-1.546-13.211-5.879-16.5-13-.217-6.29 2.616-10.623 8.5-13z"/><path style="opacity:1" fill="#fafafa" d="M-.5 112.5c5.126 46.459 30.793 72.792 77 79h-77v-79zM158.5 114.5v77h-77c10.524-1.107 20.857-3.607 31-7.5 27.494-15.164 42.827-38.331 46-69.5z"/><path style="opacity:1" fill="#ececec" d="M122.5 128.5c7.576.366 9.909 3.866 7 10.5-5.168.586-8.502-1.581-10-6.5.287-1.943 1.287-3.277 3-4z"/></svg>
